themes/SuiteP/images/sub_panel/SecurityGroups.svg

<?xml version="1.0" encoding="UTF-8" standalone="no"?>
<svg width="30px" height="30px" viewBox="0 0 30 30" version="1.1" xmlns="http://www.w3.org/2000/svg" xmlns:xlink="http://www.w3.org/1999/xlink">
    <!-- Generator: Sketch 3.8.3 (29802) - http://www.bohemiancoding.com/sketch -->
    <title>acc_security_groups</title>
    <desc>Created with Sketch.</desc>
    <defs>
        <polygon id="path-1" points="17.9434166 0 2.83911662e-05 0 2.83911662e-05 24.3484019 17.9434166 24.3484019 17.9434166 6.6076584e-15"></polygon>
    </defs>
    <g id="Page-1" stroke="none" stroke-width="1" fill="none" fill-rule="evenodd">
        <g id="acc_security_groups">
            <g id="Page-1" transform="translate(6.000000, 3.000000)">
                <mask id="mask-2" fill="white">
                    <use xlink:href="#path-1"></use>
                </mask>
                <g id="Clip-2"></g>
                <path d="M12.5193407,7.26222724 L12.5193407,11.5338145 L5.42444479,11.5338145 L5.42444479,7.26222724 L5.436653,7.26222724 C5.43250789,7.19027272 5.42444479,7.12006186 5.42444479,7.04775861 C5.42444479,5.04308727 7.01247634,3.41765922 8.97089905,3.41765922 C10.9293218,3.41765922 12.5193407,5.04308727 12.5193407,7.04775861 C12.5193407,7.12006186 12.513265,7.19027272 12.5095174,7.26222724 L12.5193407,7.26222724 Z M16.6921041,11.5338145 L15.8579148,11.5338145 L15.8579148,7.26222724 L15.8477508,7.26222724 C15.8501356,7.19027272 15.8579148,7.12006186 15.8579148,7.04775861 C15.8579148,3.15570526 12.7748612,-5.81215794e-06 8.97089905,-5.81215794e-06 C5.17057098,-5.81215794e-06 2.08757413,3.15570526 2.08757413,7.04775861 C2.08757413,7.12006186 2.09364984,7.19027272 2.09569401,7.26222724 L2.08757413,7.26222724 L2.08757413,11.5338145 L1.25134069,11.5338145 C0.560413249,11.5338145 2.83911662e-05,12.1070676 2.83911662e-05,12.8146397 L2.83911662e-05,23.0675767 C2.83911662e-05,23.7751488 0.560072555,24.3484019 1.25134069,24.3484019 L16.6921041,24.3484019 C17.3833722,24.3484019 17.9434164,23.7751488 17.9434164,23.0675767 L17.9434164,12.8146397 C17.9437571,12.1070676 17.3833722,11.5338145 16.6921041,11.5338145 L16.6921041,11.5338145 Z" id="Fill-1" fill="#FFFFFF" mask="url(#mask-2)"></path>
            </g>
        </g>
    </g>
</svg>

<?xml version="1.0" encoding="utf-8"?>
<!-- Generator: Adobe Illustrator 15.0.0, SVG Export Plug-In . SVG Version: 6.00 Build 0)  -->
<!DOCTYPE svg PUBLIC "-//W3C//DTD SVG 1.1//EN" "http://www.w3.org/Graphics/SVG/1.1/DTD/svg11.dtd">
<svg version="1.1" id="图层_1" xmlns="http://www.w3.org/2000/svg" xmlns:xlink="http://www.w3.org/1999/xlink" x="0px" y="0px"
	 width="30px" height="30px" viewBox="0 0 30 30" enable-background="new 0 0 30 30" xml:space="preserve">
<title>acc_security_groups</title>
<desc>Created with Sketch.</desc>
<g id="Page-1_1_">
	<g id="acc_security_groups">
		<g id="Page-1" transform="translate(6.000000, 3.000000)">
			<g id="Clip-2">
			</g>
			<defs>
				<filter id="Adobe_OpacityMaskFilter" filterUnits="userSpaceOnUse" x="0" y="0" width="17.943" height="24.349">
					<feColorMatrix  type="matrix" values="1 0 0 0 0  0 1 0 0 0  0 0 1 0 0  0 0 0 1 0"/>
				</filter>
			</defs>
			<mask maskUnits="userSpaceOnUse" x="0" y="0" width="17.943" height="24.349" id="mask-2">
				<g filter="url(#Adobe_OpacityMaskFilter)">
					<polygon id="path-1" fill="#FFFFFF" points="17.943,0 0,0 0,24.349 17.943,24.349 					"/>
				</g>
			</mask>
			<path id="Fill-1" mask="url(#mask-2)" fill="#999999" d="M12.52,7.262v4.271H5.424V7.262h0.012
				C5.433,7.19,5.424,7.12,5.424,7.048c0-2.005,1.588-3.63,3.546-3.63c1.959,0,3.549,1.625,3.549,3.63
				c0,0.072-0.006,0.143-0.01,0.214H12.52z M16.691,11.534h-0.834V7.262h-0.01c0.002-0.072,0.01-0.142,0.01-0.214
				C15.857,3.156,12.775,0,8.971,0c-3.8,0-6.883,3.156-6.883,7.048c0,0.072,0.006,0.143,0.008,0.214H2.087v4.271H1.251
				C0.561,11.534,0,12.107,0,12.814v10.253c0,0.708,0.56,1.281,1.251,1.281h15.44c0.691,0,1.252-0.573,1.252-1.281V12.814
				C17.943,12.107,17.383,11.534,16.691,11.534L16.691,11.534z"/>
		</g>
	</g>
</g>
</svg>
